Numix-GalliumOS/64/mimetypes/application-torrent.svg

<svg xmlns="http://www.w3.org/2000/svg" xmlns:xlink="http://www.w3.org/1999/xlink" width="64px" height="64px" viewBox="0 0 64 64" version="1.1">
<g id="surface1">
<path style=" stroke:none;fill-rule:nonzero;fill:rgb(0%,52.156863%,23.921569%);fill-opacity:1;" d="M 10.671875 0 C 9.296875 0 8 1.355469 8 2.789062 L 8 61.210938 C 8 62.566406 9.375 64 10.671875 64 L 53.328125 64 C 54.625 64 56 62.566406 56 61.210938 L 56 18 L 38 0 Z M 10.671875 0 "/>
<path style=" stroke:none;fill-rule:nonzero;fill:rgb(0%,0%,0%);fill-opacity:0.196078;" d="M 42 18 L 56 32 L 56 18 Z M 42 18 "/>
<path style=" stroke:none;fill-rule:nonzero;fill:rgb(100%,100%,100%);fill-opacity:0.392157;" d="M 38 0 L 55.984375 18 L 40.757812 18 C 39.410156 18 38 16.574219 38 15.226562 Z M 38 0 "/>
<path style=" stroke:none;fill-rule:nonzero;fill:rgb(100%,100%,100%);fill-opacity:1;" d="M 38.683594 48.277344 L 33.523438 48.277344 C 31.957031 48.277344 30.414062 48.304688 28.921875 47.730469 C 27.699219 47.257812 26.550781 46.539062 25.640625 45.582031 C 22.621094 42.425781 22.21875 37.414062 24.957031 33.933594 C 26.625 31.8125 29.195312 30.453125 31.917969 30.453125 C 32.65625 30.453125 34.214844 30.335938 34.527344 31.210938 C 34.691406 31.65625 34.351562 32.167969 33.886719 32.25 C 33.449219 32.320312 32.949219 32.101562 32.503906 32.09375 C 31.199219 32.074219 30.023438 32.257812 28.828125 32.796875 C 24.398438 34.800781 23.296875 41.296875 26.914062 44.585938 C 27.855469 45.445312 28.910156 46.089844 30.140625 46.410156 C 31.226562 46.703125 32.347656 46.636719 33.460938 46.636719 L 40.167969 46.636719 C 40.453125 46.636719 40.851562 46.710938 41.117188 46.621094 C 41.328125 46.546875 41.5 46.328125 41.644531 46.171875 C 42.011719 45.808594 42.558594 45.40625 42.765625 44.925781 L 34.34375 44.925781 C 33.332031 44.925781 32.265625 45.023438 31.253906 44.878906 C 30.070312 44.707031 29.011719 44.148438 28.136719 43.339844 C 27.679688 42.921875 27.316406 42.382812 27.042969 41.835938 C 25.375 38.492188 27.515625 34.5 31.164062 33.863281 C 31.792969 33.742188 32.476562 33.78125 33.09375 33.90625 C 33.714844 34.027344 34.488281 34.253906 34.972656 34.671875 C 35.320312 34.972656 35.355469 35.464844 35.054688 35.8125 C 34.617188 36.3125 34.171875 36.003906 33.6875 35.792969 C 33.3125 35.628906 32.921875 35.511719 32.511719 35.457031 C 30.753906 35.246094 29.058594 36.230469 28.382812 37.851562 C 27.527344 39.894531 28.601562 42.347656 30.699219 43.074219 C 31.710938 43.421875 32.867188 43.285156 33.925781 43.285156 L 42.695312 43.285156 C 43.039062 43.285156 43.625 43.394531 43.941406 43.257812 C 44.070312 43.210938 44.132812 43.03125 44.199219 42.921875 L 44.71875 41.898438 C 45.335938 40.476562 45.757812 39.027344 45.921875 37.488281 C 46.613281 31.0625 42.695312 24.941406 36.613281 22.769531 C 31.863281 21.074219 26.339844 22.242188 22.613281 25.613281 C 20.878906 27.191406 19.632812 29.148438 18.8125 31.335938 C 17.726562 34.246094 17.726562 37.808594 18.828125 40.714844 C 19.074219 41.378906 19.339844 42.035156 19.6875 42.65625 C 19.777344 42.820312 19.894531 43.195312 20.085938 43.257812 C 20.488281 43.414062 20.152344 42.527344 20.113281 42.390625 C 19.839844 41.289062 19.75 40.195312 19.75 39.066406 C 19.75 34.253906 23.003906 29.832031 27.378906 27.992188 C 28.691406 27.445312 30.195312 27.089844 31.617188 27.089844 C 31.820312 27.089844 32.046875 27.0625 32.246094 27.125 C 32.695312 27.28125 32.96875 27.800781 32.738281 28.246094 C 32.4375 28.839844 31.828125 28.695312 31.289062 28.738281 C 30.125 28.859375 28.992188 29.085938 27.910156 29.542969 C 24.78125 30.855469 22.339844 33.699219 21.636719 37.03125 C 20.625 41.761719 22.886719 46.710938 27.242188 48.898438 C 29.085938 49.820312 31.097656 50.109375 33.132812 49.964844 C 34.5625 49.863281 35.976562 49.527344 37.308594 48.988281 C 37.71875 48.816406 38.390625 48.625 38.683594 48.277344 Z M 38.683594 48.277344 "/>
</g>
</svg>

<svg xmlns="http://www.w3.org/2000/svg" viewBox="0 0 64 64">
 <g>
  <path d="m 10.672 0 c -1.375 0 -2.672 1.355 -2.672 2.789 l 0 58.42 c 0 1.355 1.375 2.789 2.672 2.789 l 42.656 0 c 1.297 0 2.672 -1.434 2.672 -2.789 l 0 -43.21 l -18 -18 m -27.328 0" style="fill:#00853d;fill-opacity:1;stroke:none;fill-rule:nonzero"/>
  <path d="m 42 18 l 14 14 l 0 -14 m -14 0" style="fill:#000;fill-opacity:0.196;stroke:none;fill-rule:nonzero"/>
  <path d="m 38 0 l 17.984 18 l -15.227 0 c -1.348 0 -2.758 -1.426 -2.758 -2.773 m 0 -15.227" style="fill:#fff;fill-opacity:0.392;stroke:none;fill-rule:nonzero"/>
  <path d="m 38.684 48.28 l -5.16 0 c -1.566 0 -3.109 0.027 -4.602 -0.547 c -1.223 -0.473 -2.371 -1.191 -3.281 -2.148 c -3.02 -3.156 -3.422 -8.168 -0.684 -11.648 c 1.668 -2.121 4.238 -3.48 6.961 -3.48 c 0.738 0 2.297 -0.117 2.609 0.758 c 0.164 0.445 -0.176 0.957 -0.641 1.039 c -0.438 0.07 -0.938 -0.148 -1.383 -0.156 c -1.305 -0.02 -2.48 0.164 -3.676 0.703 c -4.43 2 -5.531 8.5 -1.914 11.789 c 0.941 0.859 1.996 1.504 3.227 1.824 c 1.086 0.293 2.207 0.227 3.32 0.227 l 6.707 0 c 0.285 0 0.684 0.074 0.949 -0.016 c 0.211 -0.074 0.383 -0.293 0.527 -0.449 c 0.367 -0.363 0.914 -0.766 1.121 -1.246 l -8.422 0 c -1.012 0 -2.078 0.098 -3.09 -0.047 c -1.184 -0.172 -2.242 -0.73 -3.117 -1.539 c -0.457 -0.418 -0.82 -0.957 -1.094 -1.504 c -1.668 -3.344 0.473 -7.336 4.121 -7.973 c 0.629 -0.121 1.313 -0.082 1.93 0.043 c 0.621 0.121 1.395 0.348 1.879 0.766 c 0.348 0.301 0.383 0.793 0.082 1.141 c -0.438 0.5 -0.883 0.191 -1.367 -0.02 c -0.375 -0.164 -0.766 -0.281 -1.176 -0.336 c -1.758 -0.211 -3.453 0.773 -4.129 2.395 c -0.855 2.043 0.219 4.496 2.316 5.223 c 1.012 0.348 2.168 0.211 3.227 0.211 l 8.77 0 c 0.344 0 0.93 0.109 1.246 -0.027 c 0.129 -0.047 0.191 -0.227 0.258 -0.336 l 0.52 -1.023 c 0.617 -1.422 1.039 -2.871 1.203 -4.41 c 0.691 -6.426 -3.227 -12.547 -9.309 -14.719 c -4.75 -1.695 -10.273 -0.527 -14 2.844 c -1.734 1.578 -2.98 3.535 -3.801 5.723 c -1.086 2.91 -1.086 6.473 0.016 9.379 c 0.246 0.664 0.512 1.32 0.859 1.941 c 0.09 0.164 0.207 0.539 0.398 0.602 c 0.402 0.156 0.066 -0.73 0.027 -0.867 c -0.273 -1.102 -0.363 -2.195 -0.363 -3.324 c 0 -4.813 3.254 -9.234 7.629 -11.07 c 1.313 -0.547 2.816 -0.902 4.238 -0.902 c 0.203 0 0.43 -0.027 0.629 0.035 c 0.449 0.156 0.723 0.676 0.492 1.121 c -0.301 0.594 -0.91 0.449 -1.449 0.492 c -1.164 0.121 -2.297 0.348 -3.379 0.805 c -3.129 1.313 -5.57 4.156 -6.273 7.488 c -1.012 4.73 1.25 9.68 5.605 11.867 c 1.844 0.922 3.855 1.211 5.891 1.066 c 1.43 -0.102 2.844 -0.438 4.176 -0.977 c 0.41 -0.172 1.082 -0.363 1.375 -0.711 m 0 0" style="fill:#fff;fill-opacity:1;stroke:none;fill-rule:nonzero"/>
 </g>
</svg>
